icons/opera-dark.svg

<svg width="256" height="256" viewBox="0 0 256 256" fill="none" xmlns="http://www.w3.org/2000/svg">
<path d="M196 0H60C26.8629 0 0 26.8629 0 60V196C0 229.137 26.8629 256 60 256H196C229.137 256 256 229.137 256 196V60C256 26.8629 229.137 0 196 0Z" fill="#282828"/>
<g clip-path="url(#clip0_80_29)">
<path d="M127.496 40.0125C79.1734 40.0125 40 79.1859 40 127.508C40 174.432 76.9417 212.729 123.329 214.902C124.713 214.968 126.1 215.005 127.497 215.005C149.899 215.005 170.328 206.581 185.808 192.738C175.552 199.54 163.561 203.454 150.746 203.454C129.91 203.454 111.249 193.117 98.6981 176.816C89.0231 165.396 82.7568 148.514 82.3299 129.568V125.447C82.7565 106.502 89.0228 89.6169 98.6956 78.1992C111.248 61.8986 129.908 51.5618 150.744 51.5618C163.562 51.5618 175.555 55.4755 185.812 62.2817C170.408 48.5017 150.102 40.0956 127.825 40.0129C127.714 40.0129 127.605 40.0086 127.494 40.0086L127.496 40.0125Z" fill="url(#paint0_linear_80_29)"/>
<path d="M98.6969 78.2043C106.726 68.7254 117.096 63.0094 128.425 63.0094C153.898 63.0094 174.544 91.8887 174.544 127.512C174.544 163.136 153.896 192.015 128.425 192.015C117.096 192.015 106.726 186.302 98.6991 176.823C111.249 193.123 129.909 203.46 150.747 203.46C163.563 203.46 175.554 199.546 185.809 192.744C203.718 176.723 214.995 153.435 214.995 127.513C214.995 101.594 203.72 78.3077 185.816 62.2877C175.557 55.4815 163.564 51.5679 150.747 51.5679C129.911 51.5679 111.247 61.9037 98.6969 78.2043Z" fill="url(#paint1_linear_80_29)"/>
</g>
<defs>
<linearGradient id="paint0_linear_80_29" x1="112.908" y1="42.8646" x2="112.908" y2="212.461" gradientUnits="userSpaceOnUse">
<stop stop-color="#FF1B2D"/>
<stop offset="0.3" stop-color="#FF1B2D"/>
<stop offset="0.614" stop-color="#FF1B2D"/>
<stop offset="1" stop-color="#A70014"/>
</linearGradient>
<linearGradient id="paint1_linear_80_29" x1="156.844" y1="52.8625" x2="156.844" y2="202.861" gradientUnits="userSpaceOnUse">
<stop stop-color="#9C0000"/>
<stop offset="0.7" stop-color="#FF4B4B"/>
<stop offset="1" stop-color="#FF4B4B"/>
</linearGradient>
<clipPath id="clip0_80_29">
<rect width="175" height="175" fill="white" transform="translate(40 40)"/>
</clipPath>
</defs>
</svg>

<svg xmlns="http://www.w3.org/2000/svg" width="256" height="256" fill="none"><path fill="#282828" d="M196 0H60C26.863 0 0 26.863 0 60v136c0 33.137 26.863 60 60 60h136c33.137 0 60-26.863 60-60V60c0-33.137-26.863-60-60-60"/><g clip-path="url(#clip0_80_29)"><path fill="url(#paint0_linear_80_29)" d="M127.496 40.013C79.173 40.013 40 79.186 40 127.508c0 46.924 36.942 85.221 83.329 87.394q2.074.101 4.168.103c22.402 0 42.831-8.424 58.311-22.267-10.256 6.802-22.247 10.716-35.062 10.716-20.836 0-39.497-10.337-52.048-26.638-9.675-11.42-15.941-28.302-16.368-47.248v-4.121c.427-18.945 6.693-35.83 16.366-47.248 12.552-16.3 31.212-26.637 52.048-26.637 12.818 0 24.811 3.913 35.068 10.72-15.404-13.78-35.71-22.186-57.987-22.27l-.331-.003z"/><path fill="url(#paint1_linear_80_29)" d="M98.697 78.204c8.029-9.479 18.399-15.195 29.728-15.195 25.473 0 46.119 28.88 46.119 64.503s-20.648 64.503-46.119 64.503c-11.329 0-21.699-5.713-29.726-15.192 12.55 16.3 31.21 26.637 52.048 26.637 12.816 0 24.807-3.914 35.062-10.716 17.909-16.021 29.186-39.309 29.186-65.231 0-25.919-11.275-49.205-29.179-65.225-10.259-6.806-22.252-10.72-35.069-10.72-20.836 0-39.5 10.336-52.05 26.636"/></g><defs><linearGradient id="paint0_linear_80_29" x1="112.908" x2="112.908" y1="42.865" y2="212.461" gradientUnits="userSpaceOnUse"><stop stop-color="#FF1B2D"/><stop offset=".3" stop-color="#FF1B2D"/><stop offset=".614" stop-color="#FF1B2D"/><stop offset="1" stop-color="#A70014"/></linearGradient><linearGradient id="paint1_linear_80_29" x1="156.844" x2="156.844" y1="52.862" y2="202.861" gradientUnits="userSpaceOnUse"><stop stop-color="#9C0000"/><stop offset=".7" stop-color="#FF4B4B"/><stop offset="1" stop-color="#FF4B4B"/></linearGradient><clipPath id="clip0_80_29"><path fill="#fff" d="M40 40h175v175H40z"/></clipPath></defs></svg>
